public/assets/img/sound-on.svg

<svg height="51" viewBox="0 0 44 51" width="44" xmlns="http://www.w3.org/2000/svg" xmlns:xlink="http://www.w3.org/1999/xlink"><defs><path id="a" d="m44 0v35.0847458c0 2.9486389-2.3818451 5.338983-5.32 5.338983s-5.32-2.3903441-5.32-5.338983c0-2.948639 2.3818451-5.3389831 5.32-5.3389831.8159339 0 1.5889659.1843406 2.28.5137865v-18.1930564l-23.56 4.8500652v22.7444589c0 2.948639-2.5519769 5.3389831-5.7 5.3389831-3.14802307 0-5.7-2.3903441-5.7-5.3389831 0-2.9486389 2.55197693-5.338983 5.7-5.338983.96071 0 1.8659078.2226226 2.6600008.6157963l-.0000008-28.83613528z"/><filter id="b" height="120.3%" width="123.7%" x="-6.6%" y="-5.8%"><feMorphology in="SourceAlpha" operator="dilate" radius="0.5" result="shadowSpreadOuter1"/><feOffset dx="4" dy="4" in="shadowSpreadOuter1" result="shadowOffsetOuter1"/><feComposite in="shadowOffsetOuter1" in2="SourceAlpha" operator="out" result="shadowOffsetOuter1"/><feColorMatrix in="shadowOffsetOuter1" type="matrix" values="0 0 0 0 0.537388393   0 0 0 0 0.537388393   0 0 0 0 0.537388393  0 0 0 0.476987092 0"/></filter></defs><g fill="none" fill-rule="evenodd"><path d="m-5 1h50v50h-50z"/><g transform="translate(-5 1)"><use fill="#000" filter="url(#b)" xlink:href="#a"/><use fill="#fff" fill-rule="evenodd" stroke="#000" xlink:href="#a"/></g></g></svg>

<?xml version="1.0" encoding="UTF-8"?>
<svg width="44px" height="51px" viewBox="0 0 44 51" version="1.1" xmlns="http://www.w3.org/2000/svg" xmlns:xlink="http://www.w3.org/1999/xlink">
    <!-- Generator: Sketch 49 (51002) - http://www.bohemiancoding.com/sketch -->
    <title>sound-on</title>
    <desc>Created with Sketch.</desc>
    <defs>
        <path d="M44,0 L44,35.0847458 C44,38.0333847 41.6181549,40.4237288 38.68,40.4237288 C35.7418451,40.4237288 33.36,38.0333847 33.36,35.0847458 C33.36,32.1361068 35.7418451,29.7457627 38.68,29.7457627 C39.4959339,29.7457627 40.2689659,29.9301033 40.96,30.2595492 L40.96,12.0664928 L17.4,16.916558 L17.4,39.6610169 C17.4,42.6096559 14.8480231,45 11.7,45 C8.55197693,45 6,42.6096559 6,39.6610169 C6,36.712378 8.55197693,34.3220339 11.7,34.3220339 C12.66071,34.3220339 13.5659078,34.5446565 14.3600008,34.9378302 L14.36,6.10169492 L44,0 Z" id="path-1"></path>
        <filter x="-6.6%" y="-5.8%" width="123.7%" height="120.3%" filterUnits="objectBoundingBox" id="filter-2">
            <feMorphology radius="0.5" operator="dilate" in="SourceAlpha" result="shadowSpreadOuter1"></feMorphology>
            <feOffset dx="4" dy="4" in="shadowSpreadOuter1" result="shadowOffsetOuter1"></feOffset>
            <feComposite in="shadowOffsetOuter1" in2="SourceAlpha" operator="out" result="shadowOffsetOuter1"></feComposite>
            <feColorMatrix values="0 0 0 0 0.537388393   0 0 0 0 0.537388393   0 0 0 0 0.537388393  0 0 0 0.476987092 0" type="matrix" in="shadowOffsetOuter1"></feColorMatrix>
        </filter>
    </defs>
    <g id="music-icon" stroke="none" stroke-width="1" fill="none" fill-rule="evenodd">
        <g id="About" transform="translate(-554.000000, -680.000000)">
            <g id="sound-on" transform="translate(549.000000, 681.000000)">
                <rect id="Rectangle-5" x="0" y="0" width="50" height="50"></rect>
                <g id="Combined-Shape">
                    <use fill="black" fill-opacity="1" filter="url(#filter-2)" xlink:href="#path-1"></use>
                    <use stroke="#000000" stroke-width="1" fill="#FFFFFF" fill-rule="evenodd" xlink:href="#path-1"></use>
                </g>
            </g>
        </g>
    </g>
</svg>
